assets/img/braze_icons/route.svg

<svg fill="none" height="24" viewBox="0 0 24 24" width="24" xmlns="http://www.w3.org/2000/svg"><g fill="#801ed7"><path d="m1 5c0-2.20914 1.79086-4 4-4s4 1.79086 4 4-1.79086 4-4 4-4-1.79086-4-4z"/><path d="m15 19c0-2.2091 1.7909-4 4-4s4 1.7909 4 4-1.7909 4-4 4-4-1.7909-4-4z"/><path d="m15.3531 6.06507c-.7832-.06424-1.8762-.06507-3.4187-.06507h-.4344c-.5523 0-1-.44771-1-1 0-.55228.4477-1 1-1h.4847c1.4811-.00001 2.6568-.00002 3.5319.07176.4457.03655.8583.09469 1.2195.19696.3601.10199.7313.2649 1.0349.55221.7499.70962 1.0822 1.75499.8798 2.76739-.082.4099-.2909.7572-.5261 1.04846-.2358.29204-.539.57777-.8818.86499-.673.56393-1.6329 1.24283-2.8421 2.09813l-2.0642 1.4601-.0091.0065-2.0323 1.4375c-1.25929.8907-2.15117 1.5225-2.75352 2.0273-.29871.2503-.49117.4409-.61027.5884-.09858.1221-.11949.1813-.12162.1875-.06593.3354.04402.6812.29153.917.00534.0038.05658.0401.20756.0828.18242.0517.44962.0962.83803.128.78323.0643 1.87629.0651 3.41869.0651h.9344c.5523 0 1 .4477 1 1s-.4477 1-1 1h-.9846c-1.4811 0-2.65686 0-3.53198-.0718-.4457-.0365-.8583-.0947-1.21946-.1969-.36017-.102-.73128-.2649-1.03491-.5523-.74992-.7096-1.08225-1.7549-.87979-2.7673.08198-.4099.29088-.7572.52604-1.0485.23579-.292.53908-.5778.88184-.865.29357-.246.64172-.5139 1.04134-.8087.03791-.0372.0793-.0719.12408-.1036l5.78224-4.08989c1.2593-.89071 2.1512-1.52256 2.7536-2.0273.2987-.25029.4911-.44091.6102-.58842.0986-.12208.1195-.18126.1216-.1875.066-.33539-.044-.68125-.2915-.91699-.0053-.00384-.0565-.04008-.2076-.08284-.1824-.05166-.4496-.09614-.838-.12799z"/></g></svg>

<svg width="24" height="24" viewBox="0 0 24 24" fill="none" xmlns="http://www.w3.org/2000/svg">
<path d="M1 5C1 2.79086 2.79086 1 5 1C7.20914 1 9 2.79086 9 5C9 7.20914 7.20914 9 5 9C2.79086 9 1 7.20914 1 5Z" fill="#801ED7"/>
<path d="M15 19C15 16.7909 16.7909 15 19 15C21.2091 15 23 16.7909 23 19C23 21.2091 21.2091 23 19 23C16.7909 23 15 21.2091 15 19Z" fill="#801ED7"/>
<path d="M15.3531 6.06507C14.5699 6.00083 13.4769 6 11.9344 6H11.5C10.9477 6 10.5 5.55229 10.5 5C10.5 4.44772 10.9477 4 11.5 4H11.9847C13.4658 3.99999 14.6415 3.99998 15.5166 4.07176C15.9623 4.10831 16.3749 4.16645 16.7361 4.26872C17.0962 4.37071 17.4674 4.53362 17.771 4.82093C18.5209 5.53055 18.8532 6.57592 18.6508 7.58832C18.5688 7.99822 18.3599 8.34552 18.1247 8.63678C17.8889 8.92882 17.5857 9.21455 17.2429 9.50177C16.5699 10.0657 15.61 10.7446 14.4008 11.5999L12.3366 13.06L12.3275 13.0665L10.2952 14.504C9.03591 15.3947 8.14403 16.0265 7.54168 16.5313C7.24297 16.7816 7.05051 16.9722 6.93141 17.1197C6.83283 17.2418 6.81192 17.301 6.80979 17.3072C6.74386 17.6426 6.85381 17.9884 7.10132 18.2242C7.10666 18.228 7.1579 18.2643 7.30888 18.307C7.4913 18.3587 7.7585 18.4032 8.14691 18.435C8.93014 18.4993 10.0232 18.5001 11.5656 18.5001H12.5C13.0523 18.5001 13.5 18.9478 13.5 19.5001C13.5 20.0524 13.0523 20.5001 12.5 20.5001H11.5154C10.0343 20.5001 8.85854 20.5001 7.98342 20.4283C7.53772 20.3918 7.12512 20.3336 6.76396 20.2314C6.40379 20.1294 6.03268 19.9665 5.72905 19.6791C4.97913 18.9695 4.6468 17.9242 4.84926 16.9118C4.93124 16.5019 5.14014 16.1546 5.3753 15.8633C5.61109 15.5713 5.91438 15.2855 6.25714 14.9983C6.55071 14.7523 6.89886 14.4844 7.29848 14.1896C7.33639 14.1524 7.37778 14.1177 7.42256 14.086L13.2048 9.99611C14.4641 9.1054 15.356 8.47355 15.9584 7.96881C16.2571 7.71852 16.4495 7.5279 16.5686 7.38039C16.6672 7.25831 16.6881 7.19913 16.6902 7.19289C16.7562 6.8575 16.6462 6.51164 16.3987 6.2759C16.3934 6.27206 16.3422 6.23582 16.1911 6.19306C16.0087 6.1414 15.7415 6.09692 15.3531 6.06507Z" fill="#801ED7"/>
</svg>
